toolkits/global/packages/global-context/img/icons/home.svg

<svg height="24" viewBox="0 0 24 24" width="24" xmlns="http://www.w3.org/2000/svg"><path d="m12 7-6 6v5h4v-4h4v4h4v-5zm7 6.5857864v4.4142136c0 .5522847-.4477153 1-1 1h-5v-4h-2v4h-5c-.55228475 0-1-.4477153-1-1v-4.4142136c-.25592232 0-.51184464-.097631-.70710678-.2928932l-.58578644-.5857864c-.39052429-.3905243-.39052429-1.0236893 0-1.4142136l8.29289322-8.2928932 8.2928932 8.2928932c.3905243.3905243.3905243 1.0236893 0 1.4142136l-.5857864.5857864c-.1952622.1952622-.4511845.2928932-.7071068.2928932zm-7-9.17157284-7.58578644 7.58578644.58578644.5857864 7-6.99999996 7 6.99999996.5857864-.5857864z" fill="#666" fill-rule="evenodd"/></svg>

<?xml version="1.0" encoding="UTF-8"?>
<svg width="24px" height="24px" viewBox="0 0 24 24" version="1.1" xmlns="http://www.w3.org/2000/svg" xmlns:xlink="http://www.w3.org/1999/xlink">
    <!-- Generator: Sketch 63.1 (92452) - https://sketch.com -->
    <title>icon-icon / home</title>
    <desc>Created with Sketch.</desc>
    <g id="icon-/-home" stroke="none" stroke-width="1" fill="none" fill-rule="evenodd">
        <path d="M12,7 L6,13 L6,18 L10,18 L10,14 L14,14 L14,18 L18,18 L18,13 L12,7 Z M19,13.5857864 L19,18 C19,18.5522847 18.5522847,19 18,19 L13,19 L13,15 L11,15 L11,19 L6,19 C5.44771525,19 5,18.5522847 5,18 L5,13.5857864 C4.74407768,13.5857864 4.48815536,13.4881554 4.29289322,13.2928932 L3.70710678,12.7071068 C3.31658249,12.3165825 3.31658249,11.6834175 3.70710678,11.2928932 L12,3 L20.2928932,11.2928932 C20.6834175,11.6834175 20.6834175,12.3165825 20.2928932,12.7071068 L19.7071068,13.2928932 C19.5118446,13.4881554 19.2559223,13.5857864 19,13.5857864 Z M12,4.41421356 L4.41421356,12 L5,12.5857864 L12,5.58578644 L19,12.5857864 L19.5857864,12 L12,4.41421356 Z" id="home" fill="#666666"></path>
    </g>
</svg>
